static/images/pieces/shogi/cz/0TO.svg

<svg height="31.358999mm" viewBox="0 0 27.116999 31.358999" width="27.116999mm" xmlns="http://www.w3.org/2000/svg" xmlns:xlink="http://www.w3.org/1999/xlink"><linearGradient id="a" gradientUnits="userSpaceOnUse" x1="9.525333" x2="9.525329" y1="6.95017" y2="-57.114398"><stop offset="0" stop-color="#ffdba6"/><stop offset="1" stop-color="#f2c478"/></linearGradient><clipPath id="b"><path d="m0 2834.646h2834.646v-2834.646h-2834.646z" transform="translate(-101.8765 -1470.7517)"/></clipPath><g clip-path="url(#b)" stroke-miterlimit="10" transform="matrix(.35277776 0 0 -.35277776 19.499755 6.831587)"><path d="m0 0-16.217 5.989c-.397.146-.844.146-1.241 0l-16.216-5.989c-.531-.196-.903-.628-.975-1.131l-7.687-53.534c-.122-.848.627-1.599 1.595-1.599h23.904 23.903c.969 0 1.717.751 1.596 1.599l-7.687 53.534c-.073.503-.444.935-.975 1.131" fill="url(#a)"/><path d="m-40.740234-57.115234c-1.407158 0-2.637958 1.167583-2.4375 2.570312l7.6875 53.5351564c.12054.84210769.730714 1.51475552 1.521484 1.8066406l16.216797 5.9902344c.591076.2173731 1.237049.2173731 1.828125 0l16.21874988-5.9902344c.79109572-.29200518 1.39960602-.96684898 1.52148432-1.8066406l7.6875001-53.5351564c.2001477-1.402689-1.0291161-2.570312-2.4375001-2.570312h-23.9042972zm0 1.701172h23.902343 23.9042972c.5296141 0 .7957583.335596.7539063.628906l-7.6875 53.5312498c-.0241215.1662073-.15683111.35703678-.42773438.4570312l-16.21679712 5.9882812c-.202585.07396-.450026.074404-.652343 0l-16.214844-5.9882812c-.271229-.10011453-.404275-.2911868-.427735-.4550781l-7.6875-53.5332029c-.04206-.292363.225746-.628907.753907-.628906z" fill="#4d3608"/></g><g fill="#f00"><path d="m13.200474 10.709653q.559919-.197619 2.667849-.856347l.296427.82341q-2.536103.592855-3.030149.82341-1.218647.46111-1.64682.92222-.329364.329364-.329364.724601 0 .461109.428173.691664.559919.296428 2.272612.296428.889283 0 1.185711-.03294.526982 0 1.218647-.131745l.03294.82341q-1.778566.09881-2.206739.09881-1.580948 0-2.437294-.296428-.724601-.263491-.955156-.625791-.296428-.395237-.296428-.790474 0-.592855.46111-1.152774.46111-.559919 1.679757-1.086902-.06587-.296427-.164682-1.0539646-.06587-.4611096-.06587-1.1527741 0-.5599189.03294-.9551558l.889283-.032936q-.09881 1.1857106-.09881 1.9761843 0 .1317456.06587.9880922z" stroke-width=".35424" transform="scale(.99587063 1.0041465)"/><g stroke-miterlimit="10"><path d="m-.63867187 0v22.677734h1.27734374v-22.677734z" transform="matrix(.35277776 0 0 -.35277776 13.560002 24.680088)"/><path d="m-22.677734-.63867187v1.27734374h22.677734v-1.27734374z" transform="matrix(.35277776 0 0 -.35277776 17.560007 20.680091)"/><path d="m-.45117188-.45117188-8.01757812 8.01757808.9023438.9023438 8.01757808-8.01757812z" transform="matrix(.35277776 0 0 -.35277776 13.560002 20.680091)"/><path d="m-7.5664062-8.46875-.9023438.9023438 8.01757812 8.01757808.90234376-.90234376z" transform="matrix(.35277776 0 0 -.35277776 16.388432 17.851642)"/></g></g></svg>

<?xml version="1.0" encoding="UTF-8" standalone="no"?>
<!-- Created with Inkscape (http://www.inkscape.org/) -->

<svg
   width="26mm"
   height="30mm"
   viewBox="0 0 26 30"
   version="1.1"
   id="svg1"
   xmlns:xlink="http://www.w3.org/1999/xlink"
   xmlns="http://www.w3.org/2000/svg"
   xmlns:svg="http://www.w3.org/2000/svg">
  <defs
     id="defs1">
    <linearGradient
       id="linearGradient22">
      <stop
         style="stop-color:#ffdba6;stop-opacity:1;"
         offset="0"
         id="stop21" />
      <stop
         style="stop-color:#f2c478;stop-opacity:1;"
         offset="1"
         id="stop22" />
    </linearGradient>
    <clipPath
       clipPathUnits="userSpaceOnUse"
       id="clipPath1350">
      <path
         d="M 0,2834.646 H 2834.646 V 0 H 0 Z"
         transform="translate(-101.8765,-1470.7517)"
         id="path1350" />
    </clipPath>
    <linearGradient
       xlink:href="#linearGradient22"
       id="linearGradient4"
       gradientUnits="userSpaceOnUse"
       gradientTransform="translate(-2074.9613,-212.60334)"
       x1="289.06915"
       y1="220.19536"
       x2="289.06967"
       y2="143.72234" />
  </defs>
  <g
     id="layer1"
     transform="translate(-72)">
    <g
       id="path1349"
       clip-path="url(#clipPath1350)"
       transform="matrix(0.35277776,0,0,-0.35277776,90.939751,6.1513636)">
      <path
         style="color:#000000;fill:url(#linearGradient4);stroke-miterlimit:10;-inkscape-stroke:none"
         d="m 0,0 -16.217,5.989 c -0.397,0.146 -0.844,0.146 -1.241,0 L -33.674,0 c -0.531,-0.196 -0.903,-0.628 -0.975,-1.131 l -7.687,-53.534 c -0.122,-0.848 0.627,-1.599 1.595,-1.599 h 23.904 23.903 c 0.969,0 1.717,0.751 1.596,1.599 L 0.975,-1.131 C 0.902,-0.628 0.531,-0.196 0,0"
         id="path141" />
      <path
         style="color:#000000;fill:#4d3608;stroke-miterlimit:10;-inkscape-stroke:none"
         d="m -40.740234,-57.115234 c -1.407158,0 -2.637958,1.167583 -2.4375,2.570312 l 7.6875,53.5351564 c 0.12054,0.84210769 0.730714,1.51475552 1.521484,1.8066406 l 16.216797,5.9902344 c 0.591076,0.2173731 1.237049,0.2173731 1.828125,0 L 0.29492188,0.796875 C 1.0860176,0.50486982 1.6945279,-0.16997398 1.8164062,-1.0097656 L 9.5039063,-54.544922 C 9.704054,-55.947611 8.4747902,-57.115234 7.0664062,-57.115234 H -16.837891 Z m 0,1.701172 h 23.902343 23.9042972 c 0.5296141,0 0.7957583,0.335596 0.7539063,0.628906 l -7.6875,53.5312498 C 0.108691,-1.0876989 -0.02401861,-0.89686942 -0.29492188,-0.796875 L -16.511719,5.1914062 c -0.202585,0.07396 -0.450026,0.074404 -0.652343,0 L -33.378906,-0.796875 c -0.271229,-0.10011453 -0.404275,-0.2911868 -0.427735,-0.4550781 l -7.6875,-53.5332029 c -0.04206,-0.292363 0.225746,-0.628907 0.753907,-0.628906 z"
         id="path142" />
    </g>
    <path
       style="fill:#ff0000;stroke-width:0.35424"
       d="m 84.93669,10.032238 q 0.559919,-0.1976187 2.667849,-0.8563469 l 0.296428,0.8234102 q -2.536103,0.5928557 -3.030149,0.8234097 -1.218647,0.46111 -1.646821,0.92222 -0.329364,0.329364 -0.329364,0.724601 0,0.461109 0.428174,0.691664 0.559918,0.296428 2.272612,0.296428 0.889283,0 1.18571,-0.03294 0.526983,0 1.218647,-0.131745 l 0.03294,0.82341 q -1.778566,0.09881 -2.20674,0.09881 -1.580947,0 -2.437294,-0.296427 -0.724601,-0.263492 -0.955155,-0.625792 -0.296428,-0.395237 -0.296428,-0.790474 0,-0.592855 0.46111,-1.152774 0.461109,-0.559919 1.679756,-1.086901 -0.06587,-0.2964281 -0.164682,-1.0539655 -0.06587,-0.4611096 -0.06587,-1.1527741 0,-0.5599189 0.03294,-0.9551558 l 0.889283,-0.032936 q -0.09881,1.1857106 -0.09881,1.9761843 0,0.1317456 0.06587,0.9880921 z"
       id="text1350"
       transform="scale(0.99587063,1.0041465)"
       aria-label="と" />
    <path
       style="color:#000000;fill:#ff0000;stroke-miterlimit:10;-inkscape-stroke:none"
       d="M -0.63867187,0 V 22.677734 H 0.63867187 V 0 Z"
       id="path1451"
       transform="matrix(0.35277776,0,0,-0.35277776,84.999999,23.999864)" />
    <path
       style="color:#000000;fill:#ff0000;stroke-miterlimit:10;-inkscape-stroke:none"
       d="M -22.677734,-0.63867187 V 0.63867187 H 0 v -1.27734374 z"
       id="path1453"
       transform="matrix(0.35277776,0,0,-0.35277776,89.000004,19.999867)" />
    <path
       style="color:#000000;fill:#ff0000;stroke-miterlimit:10;-inkscape-stroke:none"
       d="M -0.45117188,-0.45117188 -8.46875,7.5664062 -7.5664062,8.46875 0.45117188,0.45117188 Z"
       id="path1455"
       transform="matrix(0.35277776,0,0,-0.35277776,84.999999,19.999867)" />
    <path
       style="color:#000000;fill:#ff0000;stroke-miterlimit:10;-inkscape-stroke:none"
       d="M -7.5664062,-8.46875 -8.46875,-7.5664062 -0.45117188,0.45117188 0.45117188,-0.45117188 Z"
       id="path1457"
       transform="matrix(0.35277776,0,0,-0.35277776,87.828429,17.171418)" />
  </g>
</svg>
